X: 1405
T: The Maid That Dare Not Tell
M:C|
L:1/8
N:"collected by J. O'Neill"
B:O'Neill's 1405
Z:"Transcribed by Bob Safranek, rjs@gsp.org"
K:D
(G | F)AA(F   G)BB(G   | F)AA(F  G)FE(D | F)AA(F   G)FG(A  | B)dAF  D2 D :|
(g | f)(de)(g f)(de)(f | g)fed   B2 Ag  | f(de)(g  f)(de)g | faef   d2 d(g |
     f)(de)(g f)(de)f  | {a}gfed B2 A2  | (FA)(FA) GFGA    | (Bd)AF D2 D |]


